X: 21
M:6/8
L:1/8
K:D
d2 d def|B2 B B2 g|"tr"f2 e f2 g|a3-a2||
f/2g/2|a2 f a2 f|a3 agf|e2 f gfe|f2 g a2 z|
a2 f a2 f|a3 agf|e2 f g2 a|"tr"f2 e d2||

